packages/icons/src/SVG/attach.svg

<svg width="12" height="12" viewBox="0 0 12 12" fill="none" xmlns="http://www.w3.org/2000/svg">
<path d="M3 2C3 0.89543 3.89543 0 5 0H8C9.10457 0 10 0.895431 10 2V9H9V2C9 1.44772 8.55228 1 8 1H5C4.44772 1 4 1.44772 4 2V10.25C4 10.6642 4.33579 11 4.75 11H6.25C6.66421 11 7 10.6642 7 10.25V3.5C7 3.22386 6.77614 3 6.5 3C6.22386 3 6 3.22386 6 3.5V9H5V3C5 2.44772 5.44772 2 6 2H7C7.55228 2 8 2.44772 8 3V10.5C8 11.3284 7.32843 12 6.5 12H4.5C3.67157 12 3 11.3284 3 10.5V2Z" fill="#4C505B"/>
</svg>

<!-- Generated by IcoMoon.io -->
<svg version="1.1" xmlns="http://www.w3.org/2000/svg" width="12" height="12" viewBox="0 0 12 12">
<title>attach</title>
<path d="M3 2c0-1.105 0.895-2 2-2h3c1.105 0 2 0.895 2 2v7h-1v-7c0-0.552-0.448-1-1-1h-3c-0.552 0-1 0.448-1 1v8.25c0 0.414 0.336 0.75 0.75 0.75h1.5c0.414 0 0.75-0.336 0.75-0.75v-6.75c0-0.276-0.224-0.5-0.5-0.5s-0.5 0.224-0.5 0.5v5.5h-1v-6c0-0.552 0.448-1 1-1h1c0.552 0 1 0.448 1 1v7.5c0 0.828-0.672 1.5-1.5 1.5h-2c-0.828 0-1.5-0.672-1.5-1.5v-8.5z"></path>
</svg>
